X: 353
T: A Slip Of A Thing
R: slip jig
M: 9/8
K: Amajor
c3 BAB cag|f2a fec ecA|~B3 BAF EFA|dcA EFA Bcd|
~c3 BAB cag|f2a fec ecA|~B3 BAF EFA|dcA EFA Bcd||
e2e fed cBA|G2 e2 BA GFE|F2 d2 cA BAF|EAG BAc Bcd|
e2a fed cBA|G2 e2 BA GFE|F2 d2 cA BAF|Edc BAF EFc||
~B3 BAF ABc|d2d cBA Bce|~f3 fec ecA|Bdc BAF EFA|
BcB BAF ABc|~d3 cBA Bce|fag fec ecA|Bdc EFA dcB||

